src/assets/тебе.svg

<svg xmlns="http://www.w3.org/2000/svg" width="952" height="501" fill="none" viewBox="0 0 952 501">
    <path fill="#7f42e1" d="M64.627 500.933V90.825H.002V0H234.05v90.825h-64.625v410.108zm191.081 0V0h201.91v87.331h-97.112v108.99h81.392v87.331h-81.392v129.949h97.112v87.332zm226.363 0V0h218.328v90.825H586.868v95.715h12.925c84.887 0 127.504 36.679 127.504 147.764v14.323c0 119.818-47.159 152.306-127.504 152.306zm106.893-82.092c23.056 0 32.837-15.37 32.837-60.084v-35.282c0-41.919-7.336-54.844-32.138-54.844h-2.795v150.21zm160.69 82.092V0h201.91v87.331h-97.112v108.99h81.392v87.331h-81.392v129.949h97.112v87.332z"/>
</svg>

<svg width="952" height="501" viewBox="0 0 952 501" fill="none" xmlns="http://www.w3.org/2000/svg">
<path d="M64.627 500.933V90.8246H0.0018034V5.25713e-05H234.05V90.8246H169.425V500.933H64.627ZM255.708 500.933V5.25713e-05H457.618V87.3314H360.506V196.321H441.898V283.652H360.506V413.601H457.618V500.933H255.708ZM482.071 500.933V5.25713e-05H700.399V90.8246H586.868V186.54H599.793C684.68 186.54 727.297 223.219 727.297 334.304V348.627C727.297 468.445 680.138 500.933 599.793 500.933H482.071ZM588.964 418.841C612.02 418.841 621.801 403.471 621.801 358.757V323.475C621.801 281.556 614.465 268.631 589.663 268.631H586.868V418.841H588.964ZM749.654 500.933V5.25713e-05H951.564V87.3314H854.452V196.321H935.844V283.652H854.452V413.601H951.564V500.933H749.654Z" fill="#7F42E1"/>
</svg>
